X: 36
T:Boil 'Em Cabbage Down
% Nottingham Music Database
S:via PR
M:2/4
L:1/4
K:D
"D"A/2A/4A/4 A/2A/2|"G"B/2B/4B/4 B/2B/2|"D"A/2A/4A/4 A/2F/2|"A7"E2|\
"D"A/2A/4A/4 A/2A/2|"G"B/2B/4B/4 B/2B/2|"A7"A/2c/4c/4 e/2c/2| [1"D"d2:|
 [2"D"d3/2|:A/2|"D"d/2d/4d/4 f/2A/2|d3/2A/2|"D"d/2d/4d/4 c/2B/2|"A7"A3/2A/2|\
"D"d/2d/4d/4 d/2d/2|"G"B/2B/4B/4 B/2B/2|"A7"A/2c/4c/4 e/2c/2|"D"d3/2:|


